.storybook/public/story-assets/logo-svg_12-12_desktop_light.svg

<svg width="1120" height="90" viewBox="0 0 1120 90" fill="none" xmlns="http://www.w3.org/2000/svg">
<path fill-rule="evenodd" clip-rule="evenodd" d="M129.46 25.5H121.46V44.5H129.46V25.5ZM131.46 44.5H160.96H161.96H200.958C200.437 33.9189 191.693 25.5 180.983 25.5H131.46V44.5ZM200.958 46.5H161.96H160.96H131.46V65.5H180.983C191.693 65.5 200.437 57.0811 200.958 46.5ZM129.46 65.5V46.5H121.46V65.5H129.46ZM119.46 46.5H118.96H81C81.521 57.0811 90.2651 65.5 100.975 65.5H119.46V46.5ZM119.46 44.5V25.5H100.975C90.2651 25.5 81.521 33.9189 81 44.5H118.96H119.46Z" fill="#262626"/>
<path fill-rule="evenodd" clip-rule="evenodd" d="M283.652 25.5H272.958C268.54 25.5 264.958 29.0817 264.958 33.5V44.37H283.652V25.5ZM264.958 46.37V57.5C264.958 61.9183 268.54 65.5 272.958 65.5H283.652V65.4515V46.37H264.958ZM285.652 65.5H296.958C301.376 65.5 304.958 61.9183 304.958 57.5V46.37H285.652V65.4515V65.5ZM304.958 44.37V33.5C304.958 29.0817 301.376 25.5 296.958 25.5H285.652V44.37H304.958Z" fill="#262626"/>
<path fill-rule="evenodd" clip-rule="evenodd" d="M407.563 25.5H390.39L398.977 34.0862L407.563 25.5ZM387.562 25.5H376.958C372.54 25.5 368.958 29.0817 368.958 33.5V57.5C368.958 59.3536 369.588 61.0599 370.646 62.4163L397.562 35.5004L387.562 25.5ZM372.063 63.8281C373.416 64.8762 375.114 65.5 376.958 65.5H427.562L398.977 36.9146L372.063 63.8281ZM430.39 65.5H461.032C465.451 65.5 469.032 61.9183 469.032 57.5V33.5C469.032 29.0817 465.451 25.5 461.032 25.5H410.391L400.391 35.5004L430.39 65.5Z" fill="#262626"/>
<path fill-rule="evenodd" clip-rule="evenodd" d="M582.995 28.2229C582.821 27.651 582.58 27.1391 582.274 26.6873C581.975 26.2283 581.613 25.8365 581.188 25.5117C580.771 25.1869 580.29 24.9433 579.747 24.7809C579.204 24.6115 578.613 24.5267 577.972 24.5267C576.824 24.5267 575.8 24.8198 574.902 25.4058C574.004 25.9918 573.298 26.8532 572.783 27.9899C572.274 29.1196 572.02 30.4964 572.02 32.1204C572.02 33.7584 572.274 35.1458 572.783 36.2825C573.291 37.4193 573.997 38.2842 574.902 38.8773C575.807 39.4633 576.858 39.7563 578.056 39.7563C579.142 39.7563 580.081 39.5445 580.875 39.1209C581.675 38.6972 582.292 38.0971 582.723 37.3204C583.136 36.5711 583.351 35.6991 583.369 34.7045H578.442V31.6332H587.119V34.2385C587.119 36.0954 586.729 37.7017 585.95 39.0573C585.17 40.413 584.098 41.4579 582.734 42.1922C581.369 42.9195 579.803 43.2831 578.035 43.2831C576.065 43.2831 574.335 42.8347 572.845 41.938C571.363 41.0343 570.204 39.7528 569.368 38.0936C568.54 36.4273 568.126 34.4503 568.126 32.1627C568.126 30.4117 568.369 28.8478 568.857 27.471C569.351 26.0942 570.04 24.9257 570.924 23.9654C571.808 22.9981 572.845 22.2638 574.036 21.7625C575.226 21.2542 576.521 21 577.92 21C579.103 21 580.207 21.1765 581.23 21.5295C582.253 21.8755 583.162 22.3697 583.955 23.0123C584.756 23.6548 585.414 24.4173 585.929 25.2999C586.444 26.1824 586.781 27.1568 586.942 28.2229H582.995ZM533.033 21.2965V42.9865H536.907V35.6577H541C542.649 35.6577 544.038 35.3506 545.166 34.7363C546.294 34.115 547.146 33.2642 547.724 32.1839C548.302 31.1036 548.591 29.868 548.591 28.4771C548.591 27.1003 548.302 25.8718 547.724 24.7915C547.153 23.7042 546.308 22.8499 545.187 22.2285C544.073 21.6072 542.695 21.2965 541.052 21.2965H533.033ZM536.907 32.4275H540.478C541.438 32.4275 542.225 32.258 542.837 31.9191C543.45 31.5802 543.902 31.1142 544.195 30.5211C544.494 29.9281 544.644 29.2467 544.644 28.4771C544.644 27.7075 544.494 27.0297 544.195 26.4437C543.902 25.8577 543.447 25.4022 542.827 25.0775C542.214 24.7456 541.424 24.5797 540.457 24.5797H536.907V32.4275ZM547.595 42.9865H551.73L553.499 37.6382H561.538L563.31 42.9865H567.445L559.906 21.2965H555.124L547.595 42.9865ZM560.493 34.4821L557.599 25.7447H557.432L554.542 34.4821H560.493ZM590.277 21.2965V42.9865H604.269V39.6928H594.151V33.7725H603.465V30.4788H594.151V24.5903H604.185V21.2965H590.277ZM596.428 47.7169C597.452 47.724 598.447 47.9076 599.415 48.2677C600.389 48.6207 601.266 49.1996 602.046 50.0045C602.826 50.8024 603.445 51.8721 603.905 53.2136C604.364 54.5551 604.594 56.2143 604.594 58.1912C604.601 60.0552 604.406 61.7215 604.009 63.1901C603.619 64.6516 603.059 65.8872 602.328 66.8969C601.597 67.9066 600.716 68.6761 599.686 69.2057C598.656 69.7352 597.497 70 596.209 70C594.859 70 593.661 69.7317 592.617 69.1951C591.58 68.6585 590.741 67.9242 590.101 66.9922C589.46 66.0602 589.067 64.9941 588.921 63.7938H592.732C592.927 64.6552 593.324 65.34 593.922 65.8484C594.528 66.3497 595.29 66.6003 596.209 66.6003C597.692 66.6003 598.833 65.9473 599.634 64.6411C600.434 63.3349 600.835 61.5203 600.835 59.1974H600.689C600.347 59.8187 599.905 60.3553 599.362 60.8072C598.819 61.252 598.203 61.5944 597.514 61.8345C596.832 62.0745 596.108 62.1946 595.342 62.1946C594.089 62.1946 592.962 61.891 591.959 61.2838C590.964 60.6766 590.174 59.8434 589.589 58.7843C589.011 57.7252 588.719 56.5144 588.712 55.1517C588.712 53.7396 589.032 52.4722 589.673 51.3496C590.32 50.2199 591.221 49.3303 592.377 48.6807C593.532 48.0241 594.883 47.7028 596.428 47.7169ZM596.439 50.8942C595.687 50.8942 595.008 51.0813 594.403 51.4555C593.804 51.8226 593.331 52.3239 592.983 52.9594C592.641 53.5878 592.471 54.2903 592.471 55.067C592.478 55.8366 592.648 56.5355 592.983 57.1639C593.324 57.7923 593.787 58.2901 594.371 58.6572C594.963 59.0244 595.638 59.208 596.397 59.208C596.961 59.208 597.486 59.0985 597.974 58.8796C598.461 58.6608 598.886 58.3572 599.248 57.9688C599.616 57.5734 599.902 57.1251 600.104 56.6238C600.313 56.1225 600.414 55.593 600.407 55.0352C600.407 54.2938 600.233 53.609 599.884 52.9806C599.543 52.3522 599.074 51.8473 598.475 51.4661C597.883 51.0848 597.204 50.8942 596.439 50.8942ZM586.254 55.3317H582.348C582.237 54.6822 582.032 54.1067 581.732 53.6054C581.433 53.0971 581.061 52.6664 580.615 52.3133C580.17 51.9603 579.661 51.6955 579.091 51.519C578.527 51.3355 577.918 51.2437 577.263 51.2437C576.101 51.2437 575.071 51.5402 574.173 52.1333C573.275 52.7193 572.572 53.5807 572.063 54.7175C571.555 55.8471 571.301 57.2275 571.301 58.8585C571.301 60.5177 571.555 61.9157 572.063 63.0524C572.579 64.1821 573.282 65.0364 574.173 65.6154C575.071 66.1873 576.097 66.4733 577.253 66.4733C577.893 66.4733 578.492 66.3885 579.049 66.2191C579.613 66.0426 580.117 65.7849 580.563 65.446C581.015 65.107 581.395 64.6905 581.701 64.1962C582.014 63.702 582.23 63.1372 582.348 62.5017L586.254 62.5229C586.107 63.5537 585.791 64.521 585.303 65.4248C584.823 66.3285 584.193 67.1264 583.414 67.8183C582.634 68.5032 581.722 69.0398 580.678 69.4281C579.634 69.8094 578.475 70 577.201 70C575.321 70 573.644 69.5587 572.168 68.6761C570.692 67.7936 569.53 66.5192 568.68 64.8529C567.831 63.1866 567.406 61.1884 567.406 58.8585C567.406 56.5214 567.835 54.5233 568.691 52.8641C569.547 51.1978 570.713 49.9233 572.189 49.0408C573.664 48.1582 575.335 47.7169 577.201 47.7169C578.391 47.7169 579.498 47.8864 580.521 48.2253C581.544 48.5642 582.456 49.062 583.257 49.7186C584.057 50.3682 584.715 51.166 585.23 52.1121C585.752 53.0512 586.094 54.1244 586.254 55.3317ZM615.711 48.0135H607.692V69.7035H611.565V61.7603H615.507L619.71 69.7035H624.033L619.407 61.1165C619.547 61.0595 619.682 60.9988 619.814 60.9343C620.942 60.3765 621.795 59.5892 622.372 58.5725C622.957 57.5487 623.25 56.3414 623.25 54.9505C623.25 53.5666 622.961 52.3557 622.383 51.3178C621.812 50.2728 620.966 49.4609 619.846 48.8819C618.732 48.303 617.354 48.0135 615.711 48.0135ZM611.565 58.4984H615.136C616.097 58.4984 616.884 58.3642 617.496 58.0959C618.109 57.8206 618.561 57.4216 618.854 56.8992C619.153 56.3696 619.303 55.7201 619.303 54.9505C619.303 54.1809 619.153 53.5242 618.854 52.9806C618.554 52.4298 618.098 52.0133 617.486 51.7308C616.873 51.4414 616.083 51.2966 615.116 51.2966H611.565V58.4984ZM607.496 21.24H623.423V42.9864H607.496V21.24ZM564.615 47.9571H533.067V69.7035H564.615V47.9571Z" fill="#262626"/>
<path fill-rule="evenodd" clip-rule="evenodd" d="M736.726 25.5H708.014C697.348 25.5 688.631 33.85 688.046 44.37H736.726V25.5ZM688.033 46.37C688.488 57.0121 697.26 65.5 708.014 65.5H736.726V65.4515V46.37H688.033ZM738.726 65.5H768.089C778.843 65.5 787.615 57.0121 788.07 46.37H787.967H738.726V65.4515V65.5ZM788.057 44.37C787.471 33.85 778.755 25.5 768.089 25.5H738.726V44.37H787.967H788.057Z" fill="#262626"/>
<path fill-rule="evenodd" clip-rule="evenodd" d="M858.57 25.6404C854.869 26.3425 852.07 29.5944 852.07 33.5V44.5H858.57V25.6404ZM852.07 46.5V57.5C852.07 61.4056 854.869 64.6575 858.57 65.3596V46.5H852.07ZM860.57 65.5H884.07C888.488 65.5 892.07 61.9183 892.07 57.5V46.5H860.57V65.5ZM892.07 44.5V33.5C892.07 29.0817 888.488 25.5 884.07 25.5H860.57V44.5H892.07Z" fill="#262626"/>
<path fill-rule="evenodd" clip-rule="evenodd" d="M918.57 25.5H902.07C897.652 25.5 894.07 29.0817 894.07 33.5V34.5H918.57V25.5ZM894.07 36.5V57.5C894.07 61.9183 897.652 65.5 902.07 65.5H918.57V36.5H894.07ZM920.57 65.5H926.07C930.488 65.5 934.07 61.9183 934.07 57.5V36.5H920.57V65.5ZM934.07 34.5V33.5C934.07 29.0817 930.488 25.5 926.07 25.5H920.57V34.5H934.07Z" fill="#262626"/>
<path fill-rule="evenodd" clip-rule="evenodd" d="M1003.24 32.0825C1000.03 35.6308 998.07 40.3369 998.07 45.5C998.07 50.5969 999.976 55.2485 1003.12 58.7805L1016.53 45.3701L1003.24 32.0825ZM1004.65 30.6683L1017.94 43.9559L1031.35 30.5455C1027.82 27.4066 1023.17 25.5 1018.07 25.5C1012.91 25.5 1008.2 27.4564 1004.65 30.6683ZM1032.78 31.9468L1019.35 45.3701L1032.85 58.8627L1032.9 58.9174C1036.11 55.3691 1038.07 50.663 1038.07 45.5C1038.07 40.2708 1036.06 35.5104 1032.78 31.9468ZM1031.49 60.3316L1031.43 60.277L1017.94 46.7843L1004.52 60.2077C1008.08 63.4932 1012.84 65.5 1018.07 65.5C1023.23 65.5 1027.94 63.5436 1031.49 60.3316Z" fill="#262626"/>
</svg>

<svg xmlns="http://www.w3.org/2000/svg" width="1120" height="90" fill="none"><path fill="#262626" fill-rule="evenodd" d="M129.46 25.5h-8v19h8zm2 19h69.49799999999999c-.521-10.581-9.265-19-19.975-19H131.46zm69.498 2H131.46v19h49.523c10.71 0 19.454-8.419 19.975-19m-71.498 19v-19h-8v19zm-10-19H81c.521 10.581 9.265 19 19.975 19h18.485zm0-2v-19h-18.485c-10.71 0-19.454 8.419-19.975 19h38.46M283.652 25.5h-10.694a8 8 0 0 0-8 8v10.87h18.694zm-18.694 20.87V57.5a8 8 0 0 0 8 8h10.694V46.37zm20.694 19.13h11.306a8 8 0 0 0 8-8V46.37h-19.306V65.5m19.306-21.13V33.5a8 8 0 0 0-8-8h-11.306v18.87zM407.563 25.5H390.39l8.587 8.586zm-20.001 0h-10.604a8 8 0 0 0-8 8v24c0 1.854.63 3.56 1.688 4.916L397.562 35.5zm-15.499 38.328a7.97 7.97 0 0 0 4.895 1.672h50.604l-28.585-28.585zM430.39 65.5h30.642a8 8 0 0 0 8-8v-24a8 8 0 0 0-8-8h-50.641l-10 10zM582.995 28.223a5.7 5.7 0 0 0-.721-1.536 4.7 4.7 0 0 0-1.086-1.175 4.4 4.4 0 0 0-1.441-.731 6 6 0 0 0-1.775-.254q-1.723 0-3.07.879t-2.119 2.584q-.763 1.694-.763 4.13 0 2.457.763 4.163.762 1.704 2.119 2.594 1.357.88 3.154.88 1.629 0 2.819-.636a4.44 4.44 0 0 0 1.848-1.8q.62-1.125.646-2.616h-4.927v-3.072h8.677v2.606q0 2.785-1.169 4.818a8.05 8.05 0 0 1-3.216 3.135q-2.047 1.09-4.699 1.091-2.955 0-5.19-1.345-2.223-1.356-3.477-3.844-1.242-2.5-1.242-5.931 0-2.626.731-4.692.741-2.065 2.067-3.506a8.8 8.8 0 0 1 3.112-2.203Q575.821 21 577.92 21q1.775 0 3.31.53a8.7 8.7 0 0 1 2.725 1.482 8.2 8.2 0 0 1 1.974 2.288 8.2 8.2 0 0 1 1.013 2.923zm-49.962-6.926v21.69h3.874v-7.33H541q2.474 0 4.166-.92 1.692-.933 2.558-2.553.867-1.62.867-3.707 0-2.065-.867-3.686-.856-1.63-2.537-2.562-1.67-.932-4.135-.932zm3.874 11.13h3.571q1.44 0 2.359-.508a3.2 3.2 0 0 0 1.358-1.398q.449-.89.449-2.044t-.449-2.033q-.439-.88-1.368-1.366-.92-.498-2.37-.498h-3.55zm10.688 10.56h4.135l1.769-5.349h8.039l1.772 5.349h4.135l-7.539-21.69h-4.782zm12.898-8.505-2.894-8.737h-.167l-2.89 8.737zm29.784-13.185v21.69h13.992v-3.294h-10.118v-5.92h9.314v-3.294h-9.314V24.59h10.034v-3.293zm6.151 26.42a8.7 8.7 0 0 1 2.987.55q1.461.531 2.631 1.737 1.17 1.197 1.859 3.21t.689 4.977q.01 2.795-.585 5-.585 2.19-1.681 3.706-1.097 1.515-2.642 2.309t-3.477.794q-2.026 0-3.592-.805a6.8 6.8 0 0 1-2.516-2.203q-.961-1.398-1.18-3.198h3.811q.293 1.292 1.19 2.054.909.752 2.287.752 2.224 0 3.425-1.959t1.201-5.444h-.146a5.6 5.6 0 0 1-1.327 1.61 6 6 0 0 1-1.848 1.027q-1.023.36-2.172.36-1.879 0-3.383-.91a6.6 6.6 0 0 1-2.37-2.5q-.867-1.589-.877-3.632 0-2.119.961-3.802a7 7 0 0 1 2.704-2.67q1.733-.984 4.051-.963m.011 3.177q-1.128 0-2.036.562a3.96 3.96 0 0 0-1.42 1.503q-.513.943-.512 2.108.01 1.154.512 2.097a3.96 3.96 0 0 0 1.388 1.493q.888.55 2.026.551.846 0 1.577-.328a3.9 3.9 0 0 0 1.274-.911 4.3 4.3 0 0 0 .856-1.345q.313-.753.303-1.589 0-1.112-.523-2.054a4.06 4.06 0 0 0-1.409-1.515q-.888-.572-2.036-.572m-10.185 4.438h-3.906a5 5 0 0 0-.616-1.727 4.6 4.6 0 0 0-1.117-1.292 4.6 4.6 0 0 0-1.524-.794 5.9 5.9 0 0 0-1.828-.275q-1.743 0-3.09.89-1.347.878-2.11 2.584-.762 1.695-.762 4.14 0 2.49.762 4.194.774 1.695 2.11 2.563 1.347.858 3.08.858.96 0 1.796-.254a4.9 4.9 0 0 0 1.514-.773 4.5 4.5 0 0 0 1.138-1.25 4.8 4.8 0 0 0 .647-1.694l3.906.02a8.6 8.6 0 0 1-.951 2.903 8.5 8.5 0 0 1-1.889 2.393 8.7 8.7 0 0 1-2.736 1.61q-1.566.572-3.477.572-2.82 0-5.033-1.324t-3.488-3.823q-1.274-2.5-1.274-5.994 0-3.507 1.285-5.995 1.284-2.499 3.498-3.823 2.213-1.324 5.012-1.324 1.785 0 3.32.508a8.5 8.5 0 0 1 2.736 1.494q1.2.974 1.973 2.393.784 1.409 1.024 3.22m29.457-7.318h-8.019v21.69h3.873V61.76h3.942l4.203 7.944h4.323l-4.626-8.587q.21-.086.407-.183 1.692-.836 2.558-2.361.878-1.536.878-3.623 0-2.075-.867-3.632-.857-1.568-2.537-2.436-1.67-.868-4.135-.868m-4.146 10.484h3.571q1.442 0 2.36-.402.919-.412 1.358-1.197.449-.795.449-1.949 0-1.155-.449-1.97-.45-.825-1.368-1.25-.92-.433-2.37-.433h-3.551zm-4.069-37.258h15.927v21.746h-15.927zm-42.881 26.717h-31.548v21.747h31.548zM736.726 25.5h-28.712c-10.666 0-19.383 8.35-19.968 18.87h48.68zm-48.693 20.87c.455 10.642 9.227 19.13 19.981 19.13h28.712V46.37zm50.693 19.13h29.363c10.754 0 19.526-8.488 19.981-19.13h-49.344V65.5m49.331-21.13c-.586-10.52-9.302-18.87-19.968-18.87h-29.363v18.87h49.331M858.57 25.64a8 8 0 0 0-6.5 7.86v11h6.5zm-6.5 20.86v11a8 8 0 0 0 6.5 7.86V46.5zm8.5 19h23.5a8 8 0 0 0 8-8v-11h-31.5zm31.5-21v-11a8 8 0 0 0-8-8h-23.5v19zM918.57 25.5h-16.5a8 8 0 0 0-8 8v1h24.5zm-24.5 11v21a8 8 0 0 0 8 8h16.5v-29zm26.5 29h5.5a8 8 0 0 0 8-8v-21h-13.5zm13.5-31v-1a8 8 0 0 0-8-8h-5.5v9zM1003.24 32.083a19.94 19.94 0 0 0-5.17 13.417c0 5.097 1.906 9.749 5.05 13.28l13.41-13.41zm1.41-1.415 13.29 13.288 13.41-13.41a19.9 19.9 0 0 0-13.28-5.046c-5.16 0-9.87 1.956-13.42 5.168m28.13 1.279-13.43 13.423 13.5 13.493.05.054a19.94 19.94 0 0 0 5.17-13.417c0-5.23-2.01-9.99-5.29-13.553m-1.29 28.385-.06-.055-13.49-13.493-13.42 13.424a19.9 19.9 0 0 0 13.55 5.292c5.16 0 9.87-1.956 13.42-5.168" clip-rule="evenodd"/></svg>
